X:5321
F:http://www.vwml.org/record/HAM/5/32/1
%%VWML:HAM-5-32-1-0
T:Lads of sweet Newberry, The
S:Mrs Marina Russell, Upwey coll. HED Hammond
O:England
A:Dorset
F:HAM-05-32-10.abc
N:Transcribed from HAM-02-230.gif
Z:EFDSS;PJHeadford
%%stretchlast 0
M:3/4
L:1/8
Q:3/4=45
K:Daeolian
DE|F2G2 A2&F2F2G2|A> GG2G> A|B2c2 B2|A4 A2|"^a"d2d2 d2|"^b"c2A2 A2|
GFD2 D2|D2z2D> E|F2F2 F> G|A2G2 GA|B2c3B|A4A2|
"^c"d2d2 A2|c2A2 A2|GFD2 D2|D4||"^variant a"y|d2A2"^?"=B2||"^variant b"d2A2 A2||
"^variant c"d2d2 d2|d2A2 A2|F2D2 D2|D4||"^Words D VII p6"">An ending Mrs. R. seems to like."y"> "|
W:Transcribed from Hammond's field notes HAM-02-230.gif (tune) and HAM-01-682.gif (words) W:[In the tune MS, to the left of the title:] Aeolian 509 [to the right:] Mrs Russell of Upwey
W:[In transcription to ABC, the variants have been lettered a, b and c - PJH]
W:
W:For the lads of sweet Newbury they are all roving blades
W:They take great delight in courting fair maids
W:They will kiss then, they will court them & call them their own
W:And their own darlings are murmuring at home.
W:
W:The MIDI file HAM-05-32-10.mid plays the tune five times:
W:Verse 1 - no variants&nbsp;; v2 - the variant implied in bar 1&nbsp;;
W:v3 - variant a&nbsp;; v4 variant b&nbsp;; v5 variant c.
